X: 23
T: Julia Clifford's
C:Trad.
R:polka
L:1/8
K:A
c4 c3B|G2F2 F2E2|F2B2 B2cB|[1 A2F2 F2E2:|[2 A4 A2B2||
c2B2 B2A2|c2B2 B2A2|B4 B2cB|[1 A2F2 F2E2:|[2 A4 A2B2||
%%sep 1 1 500
